svgs/opgg.svg

<svg width="192" height="192" viewBox="0 0 192 192" fill="none" xmlns="http://www.w3.org/2000/svg">
<path d="M166.424 82.0622C163.344 79.1458 158.612 79.1458 155.531 82.0622C152.297 85.1244 152.297 90.3699 155.531 93.4321C158.612 96.3486 163.344 96.3486 166.424 93.4321C169.659 90.3699 169.659 85.1244 166.424 82.0622Z" stroke="black" stroke-width="10" stroke-linecap="round" stroke-linejoin="round"/>
<path d="M78.0628 31.5214C66.1754 19.0192 46.9022 19.0192 35.0148 31.5214C23.1274 44.0236 23.1274 64.2938 35.0148 76.796C46.9022 89.2983 66.1754 89.2983 78.0628 76.796C89.9502 64.2938 89.9502 44.0236 78.0628 31.5214Z" stroke="black" stroke-width="12" stroke-linecap="round" stroke-linejoin="round"/>
<path d="M106.922 86.6975V60.4565M106.922 60.4565V22.1447C106.922 22.1447 140.41 21.8191 141.035 22.1447C160.499 32.2912 160.732 49.1446 141.035 60.4565C139.903 61.1064 106.922 60.4565 106.922 60.4565Z" stroke="black" stroke-width="12" stroke-linecap="round" stroke-linejoin="round"/>
<path d="M152.964 110.377C141.076 97.8744 121.803 97.8744 109.916 110.377C98.0282 122.879 98.0282 143.149 109.916 155.651C121.803 168.154 141.076 168.154 152.964 155.651C158.911 149.397 161.882 141.198 161.879 133H135.5" stroke="black" stroke-width="12" stroke-linecap="round" stroke-linejoin="round"/>
<path d="M78.9635 110.377C67.0761 97.8744 47.8029 97.8744 35.9156 110.377C24.0282 122.879 24.0282 143.149 35.9156 155.651C47.8029 168.154 67.0761 168.154 78.9635 155.651C84.9106 149.397 87.8825 141.198 87.8791 133H61.5" stroke="black" stroke-width="12" stroke-linecap="round" stroke-linejoin="round"/>
</svg>

<svg width="192" height="192" viewBox="0 0 192 192" fill="none" xmlns="http://www.w3.org/2000/svg"><path d="M166.424 82.062a7.875 7.875 0 0 0-10.893 0c-3.234 3.062-3.234 8.308 0 11.37a7.875 7.875 0 0 0 10.893 0c3.235-3.062 3.235-8.308 0-11.37Z" stroke="#000" stroke-width="10" stroke-linecap="round" stroke-linejoin="round"/><path d="M78.063 31.521c-11.888-12.502-31.16-12.502-43.048 0-11.888 12.503-11.888 32.773 0 45.275 11.887 12.502 31.16 12.502 43.048 0 11.887-12.502 11.887-32.772 0-45.275ZM106.922 86.698V60.457m0 0V22.145s33.488-.326 34.113 0c19.464 10.146 19.697 27 0 38.311-1.132.65-34.113 0-34.113 0ZM152.964 110.377c-11.888-12.503-31.161-12.503-43.048 0-11.888 12.502-11.888 32.772 0 45.274 11.887 12.503 31.16 12.503 43.048 0 5.947-6.254 8.918-14.453 8.915-22.651H135.5M78.963 110.377c-11.887-12.503-31.16-12.503-43.047 0-11.888 12.502-11.888 32.772 0 45.274 11.887 12.503 31.16 12.503 43.047 0 5.948-6.254 8.92-14.453 8.916-22.651H61.5" stroke="#000" stroke-width="12" stroke-linecap="round" stroke-linejoin="round"/></svg>
